X: 40623
T: Tony's Kitchen
R: reel
M: 4/4
K: Gmajor
|:EFGB EFGB|(3ABA FA DE (3FED|EFGB EFGA|B2 Bc BAGF|
EFGB EFGB|(3ABA FA dAGF|EF/G/ FG/A/ GA/B/ AB/c/|1 BAGF E2GF:|2 BAGF E2 gf||
|:eBgf egfe|dAFA d2 gf|eBgf efga|b2 bc' bagf|
eBgf egfe|dAFA dAGF|EF/G/ FG/A/ GA/B/ AB/c/|BAGF E4:|

